!!!!SEGMENT: pl-kk--kk-i-1--039_anonim--laetabundus-exsultet.krn
!!!cenid: 15xx:752
!!!COM: Anonim
!!!COM-rismID: pe30004985
!!!CDT:
!!!CNT:
!!!OTL: Laetabundus exsultet
!!!PDT:
!!!AGN:
!!!SMS-siglum: PL-Kk
!!!SMS-shelfmark: Kk.I.1
!!!SMS-shelfwork: 039 W
!!!SMS-variant:
!!!SMS-altvar:
!!!NIFC-rismSourceID: 300257954
!!!NIFC-rismChildID: 300257993
!!!NIFC-islandoraID: pl-kk:1
!!!URL-pdf-islandora: https://repozytorium.nifc.pl/islandora/object/pl-kk%3A1/datastream/PDF/view
!!!URL-scan: https://polish.musicsources.pl/pl/lokalizacje/galeria/rekopisy/5736 @EN{Scan on Polish Music Sources Website} @PL{Skany w portalu Dziedzictwo Muzyki Polskiej w otwartym dostępie}
!!!ONB-nifc: UWAGA: Cantus (s. 134r-136v, skan 0136-0139), Altus (s. 129r-131v, skan 0322-0325), Tenor (s. 112r-113r, skan 0502-0503), Bassus (s. 121v-124r, skan 0684-0686).
!!!AIN: 1 alto 1 bass 1 soprn 1 tenor
!!!key: C:ion
!!!finalis: c
**kern	**text	**kern	**text	**kern	**text	**kern	**text	**text
*part4	*part4	*part3	*part3	*part2	*part2	*part1	*part1	*part1
*staff4	*staff4	*staff3	*staff3	*staff2	*staff2	*staff1	*staff1	*staff1
*ICvox	*	*ICvox	*	*ICvox	*	*ICvox	*	*
*Ibass	*	*Itenor	*	*Ialto	*	*Isoprn	*	*
*I"BASSVS	*	*I"TENOR	*	*I"ALTVS	*	*I"CANTVS	*	*
*I'B	*	*I'T	*	*I'A	*	*I'S	*	*
*clefF5	*	*clefC4	*	*clefC4	*	*clefC3	*	*
*k[b-]	*	*k[b-]	*	*k[b-]	*	*k[b-]	*	*
*C:ion	*	*C:ion	*	*C:ion	*	*C:ion	*	*
*M2/1	*	*M2/1	*	*M2/1	*	*M2/1	*	*
*met(C)	*	*met(C)	*	*met(C)	*	*met(C)	*	*
=1-	=1-	=1-	=1-	=1-	=1-	=1-	=1-	=1-
!LO:TX:t=P:problem=all\middle	!	!LO:TX:t=P:problem=all\middle	!	!LO:TX:t=P:problem=all\middle	!	!LO:TX:t=P:problem=all\middle	!	!
2rEE	.	1F	Le-	1r	.	0r	.	.
1F	Le-	.	.	.	.	.	.	.
*	*	*lig	*	*	*	*	*	*
.	.	1G	-ta-	2r	.	.	.	.
2E\	-ta-	.	.	1c\	Le-	.	.	.
=2-	=2-	=2-	=2-	=2-	=2-	=2-	=2-	=2-
2F\	.	1F	.	.	.	2r	.	.
2D\	.	.	.	2B-\	-ta-	1f	Le-	.
*	*	*Xlig	*	*	*	*	*	*
*	*	*lig	*	*	*	*	*	*
1C	-bun-	1G	-bun-	0c	-bun-	.	.	.
.	.	.	.	.	.	2e\	-ta-	.
=3-	=3-	=3-	=3-	=3-	=3-	=3-	=3-	=3-
2FF/	.	1A	.	.	.	2f\	.	.
2AA/	.	.	.	.	.	2c/	.	.
*	*	*Xlig	*	*	*	*	*	*
*	*	*lig	*	*lig	*	*	*	*
4GG/	-dus	1B-	.	1G	-dus	1.d	-bun-	.
4AA/	.	.	.	.	.	.	.	.
4BB-/	.	.	.	.	.	.	.	.
4C\	.	.	.	.	.	.	.	.
=4-	=4-	=4-	=4-	=4-	=4-	=4-	=4-	=4-
4D\	.	1A	.	1F	.	.	.	.
*custos:F	*	*	*	*	*	*	*	*
4E\	.	.	.	.	.	.	.	.
!LO:PB:g=original	!	!	!	!	!	!	!	!
1F	.	.	.	.	.	4c/	.	.
.	.	.	.	.	.	4B-/	.	.
*	*	*Xlig	*	*Xlig	*	*	*	*
*	*	*lig	*	*	*ij	*	*	*
.	.	1G	.	2r	.	2c/	-dus	.
*	*	*	*	*	*	*	*ij	*
2E\	.	.	.	2G/	le-	1c\	le-	.
=5-	=5-	=5-	=5-	=5-	=5-	=5-	=5-	=5-
2F\	.	1F	.	2A/	-ta-	.	.	.
2BB-/	.	.	.	2B-/	.	2d/	.	.
*	*	*Xlig	*	*	*	*	*	*
0C	.	1E	.	1G	.	2.c/	-ta-	.
.	.	.	.	.	.	4d\	.	.
=6-	=6-	=6-	=6-	=6-	=6-	=6-	=6-	=6-
*	*	*lig	*	*	*	*	*	*
.	.	1G	-dus,	2.c\	-bun-	4e\	.	.
.	.	.	.	.	.	2f\	-bun-	.
*	*	*	*	*	*	*custos:f	*	*
.	.	.	.	4B-\	.	4e\	.	.
!	!	!LO:TX:a:t=12	!	!	!	!LO:LB:g=original	!	!
!	!	!LO:TX:t=P:problem=kreska pseudotaktowa	!	!	!	!LO:TX:t=P:problem=kreska pseudotaktowa	!	!
2FF/	.	1F	.	2A/	.	1f	-dus	.
*	*	*	*	*custos:F	*	*	*	*
!	!	!	!	!LO:TX:t=P:problem=kreska pseudotaktowa	!	!	!	!
2BB-/	ex-	.	.	2B-/	.	.	.	.
!LO:TX:t=P:problem=kreska pseudotaktowa	!	!	!	!	!	!	!	!
*	*	*Xlig	*	*	*	*	*Xij	*
=7-	=7-	=7-	=7-	=7-	=7-	=7-	=7-	=7-
!	!	!	!	!LO:LB:g=original	!	!	!	!
1BB-	-ul-	1B-	ex-	1F	-dus	2r	.	.
*	*	*	*	*	*Xij	*	*	*
.	.	.	.	.	.	2f\	ex-	.
2GG/	-tet	1d	-ul-	2r	.	2g\	-ul-	.
2BB-/	fi-	.	.	2F/	ex-	2d/	-tet	.
=8-	=8-	=8-	=8-	=8-	=8-	=8-	=8-	=8-
2AA/	-de-	1c	-tet	1A	-ul-	2e\	fi-	.
2FF/	-lis	.	.	.	.	2f\	-de-	.
*	*	*custos:d	*	*	*	*	*	*
2.GG/	cho-	1B-	fi-	1G	-tet	1d	-lis	.
4AA/	.	.	.	.	.	.	.	.
=9-	=9-	=9-	=9-	=9-	=9-	=9-	=9-	=9-
!	!	!LO:LB:g=original	!	!	!	!	!	!
1BB-	.	1d	-de-	1F	fi-	2r	.	.
.	.	.	.	.	.	2d\	cho-	.
2AA/	.	1c	-lis	1A	-de-	2e\	.	.
*custos:C	*	*	*	*	*	*	*	*
2FF/	.	.	.	.	.	1f\	.	.
=10-	=10-	=10-	=10-	=10-	=10-	=10-	=10-	=10-
*	*	*lig	*	*	*	*	*	*
!LO:LB:g=original	!	!	!	!	!	!	!	!
1C	-rus	1c	cho-	1G	-lis	.	.	.
.	.	.	.	.	.	2e\	.	.
2r	.	1B-	.	2.G/	cho-	1d	.	.
*	*ij	*	*	*	*	*	*	*
2GG/	cho-	.	.	.	.	.	.	.
.	.	.	.	4F/	.	.	.	.
*	*	*Xlig	*	*	*	*	*	*
=11-	=11-	=11-	=11-	=11-	=11-	=11-	=11-	=11-
*	*	*lig	*	*	*	*	*	*
2AA/	.	1A	.	2E/	.	2c/	.	.
2FF/	.	.	.	2F/	.	1f	.	.
1GG	.	1B-	.	2D/	-rus	.	.	.
.	.	.	.	2G/	Al-	2e\	.	.
!	!	!	!	!	!	!LO:TX:t=P:problem=kreska pseudotaktowa	!	!
*	*	*Xlig	*	*	*	*	*	*
=12-	=12-	=12-	=12-	=12-	=12-	=12-	=12-	=12-
!	!	!LO:TX:a:t=11	!	!	!	!	!	!
!	!	!LO:TX:t=P:problem=kreska pseudotaktowa	!	!	!	!	!	!
2FF/	-rus	1c	-rus	2A/	-le-	2f\	-rus	.
*	*Xij	*	*	*	*	*	*	*
*	*	*	*	*	*	*custos:d	*	*
!LO:TX:t=P:problem=kreska pseudotaktowa	!	!	!	!LO:TX:t=P:problem=kreska pseudotaktowa w środku nuty	!	!	!	!
2C\	Al-	.	.	1c	.	2e\	Al-	.
*lig	*	*	*	*	*	*	*	*
!	!	!	!	!	!	!LO:LB:g=original	!	!
1D	-le-	1F	Al-	.	.	2d\	-le-	.
.	.	.	.	2B-/	-lu-	1f\	-lu-	.
=13-	=13-	=13-	=13-	=13-	=13-	=13-	=13-	=13-
*	*	*lig	*	*	*	*	*	*
*	*	*	*	*custos:A	*	*	*	*
1C	.	1G	-le-	1c	-ia	.	.	.
.	.	.	.	.	.	2e\	.	.
*Xlig	*	*	*	*	*	*	*	*
!	!	!	!	!LO:LB:g=original	!	!	!	!
2D\	.	1F	.	2.A\	lu-	2d/	-ia	.
1F\	-lu-	.	.	.	.	2c/	.	.
.	.	.	.	4B-\	-i-	.	.	.
*	*	*Xlig	*	*	*	*	*	*
=14-	=14-	=14-	=14-	=14-	=14-	=14-	=14-	=14-
*	*	*lig	*	*	*	*	*ij	*
.	.	1G	.	1c	-a	2r	.	.
2E\	.	.	.	.	.	2g\	al-	.
2D\	.	1A	.	2r	.	2f\	.	.
*	*	*	*	*	*ij	*	*	*
2C\	.	.	.	2c\	al-	2e\	.	.
*	*	*Xlig	*	*	*	*	*	*
=15-	=15-	=15-	=15-	=15-	=15-	=15-	=15-	=15-
*	*	*lig	*	*	*	*	*	*
2BB-/	.	1B-	.	1d	.	2d/	.	.
2GG/	.	.	.	.	.	2.g\	-le-	.
*	*	*	*	*	*	*	*Xij	*
2AA/	.	1A	.	1c	.	.	.	.
.	.	.	.	.	.	4f\	.	.
2FF/	.	.	.	.	.	1f\	.	.
*	*	*Xlig	*	*	*	*	*	*
=16-	=16-	=16-	=16-	=16-	=16-	=16-	=16-	=16-
*	*	*lig	*	*	*	*	*	*
2.C\	.	1G	.	2c\	-le-	.	.	.
*	*	*	*	*	*Xij	*	*	*
.	.	.	.	2G/	.	2e\	.	.
4BB-/	.	.	.	.	.	.	.	.
*custos:BB-	*	*	*	*	*	*	*	*
2AA/	.	1F	.	2c\	.	2f\	.	.
*	*	*Xlig	*	*	*	*	*	*
*clefF4	*	*	*	*	*	*	*	*
!LO:LB:g=original	!	!	!	!	!	!	!	!
2BB-/	.	.	.	4B-\	.	2d/	.	.
.	.	.	.	4A/	.	.	.	.
=17-	=17-	=17-	=17-	=17-	=17-	=17-	=17-	=17-
0C	.	1E	.	1G	.	0c	-lu-	.
*	*	*lig	*	*	*	*	*	*
.	.	1G	-lu-	1E	-lu-	.	.	.
=18-	=18-	=18-	=18-	=18-	=18-	=18-	=18-	=18-
*	*	*custos:F	*	*custos:F	*	*custos:f	*	*
0FF;l	-iia:	0\F;l	-ia	0A;;l	-ia	0c;<l	-iia	.
*	*	*Xlig	*	*	*	*	*	*
=19-	=19-	=19-	=19-	=19-	=19-	=19-	=19-	=19-
!	!	!LO:TX:t=P:problem=drugi tekst, nieczytelny (Ecce le...?)	!LO:PB:g=original	!	!	!	!	!
*	*	*	*	*lig	*	*	*	*
!	!	!LO:LB:g=original	!	!LO:TX:a:t=4:rj	!	!LO:PB:g=original	!	!
2r	.	1F	An-	1F	An-	1f	An-	.
1BB-	An-	.	.	.	.	.	.	.
*	*	*lig	*	*	*	*	*	*
.	.	1F	-ge-	1B-	.	2d\	-ge-	.
*lig	*	*	*	*	*	*lig	*	*
1BB-/	-ge-	.	.	.	.	1d\	-lus	.
*	*	*	*	*Xlig	*	*	*	*
=20-	=20-	=20-	=20-	=20-	=20-	=20-	=20-	=20-
.	.	1G	.	2G/	-ge-	.	.	.
1C	.	.	.	4c\	-lus	1e	.	.
.	.	.	.	4B-\	.	.	.	.
*Xlig	*	*Xlig	*	*	*	*Xlig	*	*
.	.	1A	-lus	4A/	.	.	.	.
.	.	.	.	4G/	.	.	.	.
1D\	-lus	.	.	4F/	.	2.f\	con-	.
.	.	.	.	4G/	.	.	.	.
=21-	=21-	=21-	=21-	=21-	=21-	=21-	=21-	=21-
*	*	*lig	*	*	*	*	*	*
.	.	1F	con-	2A/	.	.	.	.
.	.	.	.	.	.	4e\	.	.
2BB-/	con-	.	.	2.B-/	con-	1d	.	.
2.E-X\	-ſi-	1G	.	.	.	.	.	.
.	.	.	.	4A/	.	.	.	.
.	.	.	.	1G/	.	2c/	.	.
4E-\	-li-	.	.	.	.	.	.	.
*	*	*Xlig	*	*	*	*	*	*
=22-	=22-	=22-	=22-	=22-	=22-	=22-	=22-	=22-
1D	-i	1A	-ſi-	.	.	2d/	.	.
.	.	.	.	2F/	.	1f	-ſi-	.
*	*	*lig	*	*	*	*	*	*
1r	.	1B-	-li-	2.G/	-ſi-	.	.	.
.	.	.	.	.	.	2e\	-li-	.
.	.	.	.	4G/	-li-	.	.	.
=23-	=23-	=23-	=23-	=23-	=23-	=23-	=23-	=23-
2r	.	1A	.	1F	-i	2f\	-i	.
*	*	*	*	*	*	*	*ij	*
1F	con-	.	.	.	.	2c/	con-	.
*	*	*Xlig	*	*	*	*	*	*
.	.	1G	.	2r	.	2d/	.	.
*	*	*	*	*custos:d	*	*	*	*
2Eny\	.	.	.	2c\	con-	2e/	.	.
=24-	=24-	=24-	=24-	=24-	=24-	=24-	=24-	=24-
*custos:C	*	*	*	*	*	*	*	*
!	!	!	!	!LO:LB:g=original	!	!	!	!
2D/	.	1A	-i	2d\	-ſi-	2f\	-ſi-	.
!LO:LB:g=original	!	!	!	!	!	!	!	!
2C/	-ſi-	.	.	2e\	-li-	2e\	.	.
*	*	*	*	*	*	*custos:c	*	*
1D	-li-	1A	na-	1f	.	1d	-li-	.
=25-	=25-	=25-	=25-	=25-	=25-	=25-	=25-	=25-
!	!	!	!	!	!	!LO:LB:g=original	!	!
2AA/	-i	1c	-tus	2e\	-i	2c/	-i	.
*	*	*	*	*	*	*	*Xij	*
2AA/	na-	.	.	1E	na-	2e\	na-	.
1C	-tus	1c	eſt	.	.	1e	-tus	.
.	.	.	.	2G/	.	.	.	.
=26-	=26-	=26-	=26-	=26-	=26-	=26-	=26-	=26-
*	*	*lig	*	*	*	*	*	*
2FF/	eſt,	1A	de	2.F/	.	1c	eſt,	.
1F	de	.	.	.	.	.	.	.
.	.	.	.	4E/	-tus	.	.	.
.	.	1G	.	1C	eſt,	2r	.	.
2E\	.	.	.	.	.	2e\	de	.
*	*	*Xlig	*	*	*ij	*	*	*
=27-	=27-	=27-	=27-	=27-	=27-	=27-	=27-	=27-
2D/	Vir-	1A	.	2r	.	2f\	uir-	.
2C/	.	.	.	2E/	na-	2e\	.	.
2BB-/	.	1B-	vir-	2F/	-tus	2.d\	.	.
2GG/	.	.	.	2G/	eſt	.	.	.
.	.	.	.	.	.	4e\	.	.
=28-	=28-	=28-	=28-	=28-	=28-	=28-	=28-	=28-
*	*	*	*	*Xbrackettup	*	*	*	*
*	*	*lig	*	*col	*Xij	*	*	*
!	!	!	!	!LO:TUP:b	!	!	!	!
2D/	.	1A	-gi-	3F/	.	2f\	.	.
.	.	.	.	3G/	.	.	.	.
2C/	.	.	.	.	.	2.e\	.	.
.	.	.	.	3A/	de	.	.	.
*	*	*	*	*Xcol	*	*	*	*
*	*	*custos:A	*	*	*	*	*	*
!LO:TX:t=P:problem=kreska pseudotaktowa	!	!	!	!	!	!	!	!
*	*	*	*	*lig	*	*	*	*
1BB-	-gi-	1G	.	1D	uir-	.	.	.
.	.	.	.	.	.	4d\	.	.
.	.	.	.	.	.	1d\	.	.
*	*	*Xlig	*	*	*	*	*	*
=29-	=29-	=29-	=29-	=29-	=29-	=29-	=29-	=29-
!LO:TX:t=P:problem=kreska pseudotaktowa	!	!LO:TX:t=P:problem=kreska pseudotaktowa	!	!LO:TX:t=P:problem=kreska pseudotaktowa	!	!	!	!
!	!	!LO:LB:g=original	!	!	!	!	!	!
1AA	-ne,	1A	-ne,	1E	.	.	.	.
!	!	!	!	!	!	!LO:SIC:v:s=2c#/:t=?	!	!
.	.	.	.	.	.	2c/	-gi-	.
*	*	*	*	*Xlig	*	*	*	*
*	*	*	*	*custos:C	*	*	*	*
!	!	!LO:TX:a:t=13?	!	!	!	!	!	!
1r	.	1F	ſol	1D	-gi-	2d/	-ne	.
*	*	*	*	*	*	*custos:e	*	*
.	.	.	.	.	.	2f\	uir-	.
=30-	=30-	=30-	=30-	=30-	=30-	=30-	=30-	=30-
*	*	*lig	*	*	*	*	*	*
!	!	!	!	!	!LO:LB:g=original	!LO:LB:g=original	!	!
2r	.	1G	de	2C/	-ne	2.e\	.	.
2C/	ſol,	.	.	2c\	ſol	.	.	.
.	.	.	.	.	.	4e\	-gi-	.
*custos:F	*	*	*	*	*	*	*	*
2D/	de	1F	.	1A	de	1d	-ne,	.
!LO:PB:g=original	!	!	!	!	!	!	!	!
1F\	ſtel-	.	.	.	.	.	.	.
*	*	*Xlig	*	*	*	*	*	*
=31-	=31-	=31-	=31-	=31-	=31-	=31-	=31-	=31-
*	*	*lig	*	*	*	*	*	*
.	.	1G	ſtel-	2B-\	.	2r	.	.
2E\	.	.	.	2c\	.	2c/	ſol	.
*lig	*	*	*	*	*	*	*	*
1F	.	1A	.	2A/	.	2d\	.	.
.	.	.	.	1d\	ſtel-	1f\	de	.
*	*	*Xlig	*	*	*	*	*	*
=32-	=32-	=32-	=32-	=32-	=32-	=32-	=32-	=32-
*	*	*lig	*	*	*	*	*	*
1G	.	1B-	.	.	.	.	.	.
.	.	.	.	4c\	.	2e\	ſtel-	.
.	.	.	.	4B-\	.	.	.	.
*Xlig	*	*	*	*	*	*	*	*
2.F\	.	1A	.	0c	.	1f	.	.
4E/	.	.	.	.	.	.	.	.
*	*	*Xlig	*	*	*	*	*	*
=33-	=33-	=33-	=33-	=33-	=33-	=33-	=33-	=33-
*	*	*lig	*	*	*	*	*	*
1C	-la,	1G	.	.	.	1g	.	.
2r	.	1F	.	1A	-la,	2.c/	.	.
2FF/	ſol,	.	.	.	.	.	.	.
.	.	.	.	.	.	4d/	.	.
*	*	*Xlig	*	*	*ij	*	*	*
=34-	=34-	=34-	=34-	=34-	=34-	=34-	=34-	=34-
1C	de	1E	.	2r	.	4e\	.	.
.	.	.	.	.	.	4f\	.	.
.	.	.	.	2G/	de	4g\	.	.
.	.	.	.	.	.	4f\	.	.
*	*	*lig	*	*	*	*	*	*
1C	ſtel-	1G	-la:	1c	ſtel-	4e\	.	.
.	.	.	.	.	.	4d\	.	.
.	.	.	.	.	.	2e\	.	.
=35-	=35-	=35-	=35-	=35-	=35-	=35-	=35-	=35-
*	*	*	*	*	*	*custos:c	*	*
0FF;l	-la,	0F\;l	.	1c	-la	0f;;l	-la	.
.	.	.	.	1A;<l	.	.	.	.
*	*	*	*	*custos:A	*	*	*	*
*	*	*Xlig	*	*	*Xij	*	*	*
=36-	=36-	=36-	=36-	=36-	=36-	=36-	=36-	=36-
!	!	!	!	!LO:LB:g=original	!	!	!	!
!	!	!	!	!LO:TX:a:t=6:rj	!	!LO:LB:g=original	!	!
1FF	Si-	1F	Sic-	1A	Sic-	1c	Sic-	.
*	*	*lig	*	*	*	*	*	*
2C/	-cut	1E	-ut	2G/	-ut	2c/	-ut	.
2C/	ſii-	.	.	2G/	ſii-	2c/	ſi-	.
=37-	=37-	=37-	=37-	=37-	=37-	=37-	=37-	=37-
*custos:BB-	*	*	*	*	*	*	*	*
2FF/	-dus	1F	.	2c\	-dus	2A/	-dus	.
!LO:LB:g=original	!	!	!	!	!	!	!	!
4BB-/	ra-	.	.	2B-\	.	2.d/	ra-	.
4C/	.	.	.	.	.	.	.	.
*	*	*Xlig	*	*	*	*	*	*
4D/	.	1D	ſii-	2A/	ra-	.	.	.
4E\	.	.	.	.	.	4c/	.	.
4F\	.	.	.	2F/	-di-	4A/	.	.
4D\	.	.	.	.	.	4B-/	.	.
=38-	=38-	=38-	=38-	=38-	=38-	=38-	=38-	=38-
4E\	.	1C	-dus	2G/	-u(m)	2c/	.	.
4F\	.	.	.	.	.	.	.	.
2.G\	.	.	.	2E/	ſi-	2c/	-di-	.
*	*	*custos:G	*	*	*	*	*	*
.	.	1F	ra-	2.A/	-cut	1c	-u(m)	.
4F\	.	.	.	.	.	.	.	.
1F\	.	.	.	.	.	.	.	.
.	.	.	.	4B-\	.	.	.	.
=39-	=39-	=39-	=39-	=39-	=39-	=39-	=39-	=39-
*	*	*lig	*	*	*	*	*	*
!	!	!LO:PB:g=original	!	!	!	!	!	!
.	.	1G	-di-	2c\	ſii-	2r	.	.
2E\	.	.	.	2G/	-dus	2c/	pro-	.
2D/	.	1F	.	2A/	ra-	1d	.	.
2BB-/	-di-	.	.	2B-\	-di-	.	.	.
*	*	*Xlig	*	*	*	*	*	*
=40-	=40-	=40-	=40-	=40-	=40-	=40-	=40-	=40-
1C	-um	1E	.	1G	-u(m)	2.c/	-fert	.
.	.	.	.	.	.	4B-/	uir-	.
2FF/	.	1F	-um	2c\	prof-	2A/	-go	.
*	*	*	*	*custos:A	*	*	*	*
1BB-/	pro-	.	.	1B-\	-fert	1d\	fi-	.
=41-	=41-	=41-	=41-	=41-	=41-	=41-	=41-	=41-
.	.	1F	prof-	.	.	.	.	.
*	*	*	*	*	*	*custos:B-	*	*
!	!	!	!	!LO:PB:g=original	!	!	!	!
2C/	-fert	.	.	2.A/	uir-	1c	.	.
*lig	*	*lig	*	*	*	*	*	*
1D	uir-	1F	-fert	.	.	.	.	.
.	.	.	.	4G/	.	.	.	.
!	!	!	!	!	!	!LO:LB:g=original	!	!
.	.	.	.	1F/	.	2B-/	-li-	.
=42-	=42-	=42-	=42-	=42-	=42-	=42-	=42-	=42-
!	!	!	!	!	!	!LO:TX:t=P:problem=kreska pseudotaktowa w środku nuty	!	!
1C	.	1G	.	.	.	0c	-um,	.
!	!	!	!	!LO:TX:t=P:problem=kreska pseudotaktowa	!	!	!	!
.	.	.	.	2E/	.	.	.	.
*Xlig	*	*Xlig	*	*	*	*	*	*
*custos:BB-	*	*	*	*	*	*	*	*
!	!	!LO:TX:t=P:problem=kreska pseudotaktowa	!	!	!	!	!	!
1FF	.	1A	uir-	2.F/	.	.	.	.
.	.	.	.	4E/	.	.	.	.
*clefF5	*	*lig	*	*	*	*	*	*
=43-	=43-	=43-	=43-	=43-	=43-	=43-	=43-	=43-
!LO:LB:g=original	!	!	!	!	!	!	!	!
2BB-/	.	1F	-go	2D/	.	2d/	fi-	.
2AA/	.	.	.	1F	.	2c/	.	.
!	!	!	!	!	!	!LO:TX:t=P:problem=kreska pseudotaktowa	!	!
1GG	.	1G	.	.	.	1B-	-li-	.
!	!	!	!	!LO:TX:t=P:problem=kreska pseudotaktowa	!	!	!	!
.	.	.	.	2E/	.	.	.	.
*	*	*Xlig	*	*	*	*	*	*
=44-	=44-	=44-	=44-	=44-	=44-	=44-	=44-	=44-
!	!	!LO:TX:t=P:problem=kreska pseudotaktowa	!	!	!	!	!	!
*	*	*	*	*lig	*	*	*	*
2FF/	-go	1A	fi-	1F	.	4A/	.	.
.	.	.	.	.	.	4B-/	.	.
1FF	fi-	.	.	.	.	4c/	.	.
.	.	.	.	.	.	4d\	.	.
*	*	*lig	*	*	*	*	*	*
.	.	1B-	-li-	1G	.	4e\	.	.
.	.	.	.	.	.	4f\	.	.
2EE/	.	.	.	.	.	2.g\	.	.
*	*	*	*	*Xlig	*	*	*	*
=45-	=45-	=45-	=45-	=45-	=45-	=45-	=45-	=45-
1FF	.	1A	.	2C/	-go	.	.	.
.	.	.	.	.	.	4f\	.	.
.	.	.	.	1c	fi-	1f	.	.
*	*	*Xlig	*	*	*	*	*	*
1C	-li-	1G	.	.	.	.	.	.
.	.	.	.	2c\	-li-	2e\	-um	.
=46-	=46-	=46-	=46-	=46-	=46-	=46-	=46-	=46-
1FF	-um,	1A	-um	0c	-um,	2f\	.	.
*	*	*	*	*	*	*custos:A	*	*
.	.	.	.	.	.	2F/	fi-	.
!	!	!	!	!	!	!LO:LB:g=original	!	!
2r	.	1F	pa-	.	.	2.A/	.	.
1F\	pa-	.	.	.	.	.	.	.
.	.	.	.	.	.	4B-/	.	.
=47-	=47-	=47-	=47-	=47-	=47-	=47-	=47-	=47-
*	*	*lig	*	*	*	*	*	*
.	.	1G	-ri	2r	.	1c	-li-	.
*	*	*	*	*custos:B-	*	*	*	*
2E\	-ri	.	.	1c	pa-	.	.	.
1D	for-	1F	.	.	.	2F/	-um	.
!	!	!	!	!LO:LB:g=original	!	!	!	!
.	.	.	.	2B-\	-ri	2f\	pa-	.
*	*	*Xlig	*	*	*	*	*	*
=48-	=48-	=48-	=48-	=48-	=48-	=48-	=48-	=48-
*	*	*lig	*	*	*	*	*	*
2C\	.	1G	for-	4c\	for-	2e\	-ri	.
.	.	.	.	4C/	.	.	.	.
2BB-/	.	.	.	2D/	.	2d\	for-	.
2AA/	.	1A	.	2E/	.	1c	-ma,	.
2FF/	.	.	.	1F/	.	.	.	.
*	*	*Xlig	*	*	*	*	*	*
=49-	=49-	=49-	=49-	=49-	=49-	=49-	=49-	=49-
*custos:FF	*	*	*	*	*	*	*	*
*	*	*lig	*	*	*	*	*ij	*
1GG	-ma	1B-	.	.	.	2r	.	.
.	.	.	.	2E/	.	2G/	pa-	.
*clefF4	*ij	*	*	*	*	*	*	*
*	*	*custos:G	*	*	*	*	*	*
!LO:LB:g=original	!	!	!	!	!	!	!	!
4FF/	pa-	1A	.	2F/	-ma	2.c/	.	.
4GG/	.	.	.	.	.	.	.	.
*	*	*	*	*	*ij	*	*	*
4AA/	.	.	.	4C/	for-	.	.	.
4BB-/	.	.	.	4D/	.	4B-/	.	.
*	*	*Xlig	*	*	*	*	*	*
=50-	=50-	=50-	=50-	=50-	=50-	=50-	=50-	=50-
*	*	*lig	*	*	*	*	*	*
!	!	!LO:LB:g=original	!	!	!	!	!	!
2C/	-ri	1G	.	4E/	.	4G/	-ri	.
.	.	.	.	4F/	.	4A/	.	.
4GG/	for-	.	.	2G/	.	4B-/	.	.
4AA/	.	.	.	.	.	4c/	.	.
4BB-/	.	1F	.	4D/	.	2d\	.	.
4C/	.	.	.	4E/	.	.	.	.
2D\	.	.	.	4F/	.	4A/	for-	.
.	.	.	.	4G/	.	4B-/	.	.
*	*	*Xlig	*	*	*	*	*Xij	*
=51-	=51-	=51-	=51-	=51-	=51-	=51-	=51-	=51-
2.C/	.	1E	.	4A/	.	4c/	.	.
*	*	*	*	*	*	*custos:e	*	*
.	.	.	.	4B-\	.	4d\	.	.
*	*	*	*	*custos:B-	*	*	*	*
!	!	!	!	!	!	!LO:LB:g=original	!	!
.	.	.	.	2c\	.	4e\	.	.
4BB-/	.	.	.	.	.	4c/	.	.
*	*	*lig	*	*	*	*	*	*
!	!	!	!	!LO:LB:g=original	!	!	!	!
2GG/	-ma	1G	-ma	2B-\	-ma	2d\	.	.
*	*Xij	*	*	*	*Xij	*	*	*
2C/	for-	.	.	2G/	for-	2e\	.	.
=52-	=52-	=52-	=52-	=52-	=52-	=52-	=52-	=52-
0FF;l	-ma	0F\;l	.	0c;<l	-ma	0f;<l	-ma	.
*	*	*Xlig	*	*	*	*	*	*
=53-	=53-	=53-	=53-	=53-	=53-	=53-	=53-	=53-
!	!	!LO:TX:t=P:problem=drugi tekst, nieczytelny 	!	!LO:TX:a:t=2	!	!	!	!
2.C/	Ce-	1c	Ce-	1.G	Ce-	2.g\	Ce-	.
4D/	.	.	.	.	.	4f\	.	.
*custos:F	*	*	*	*	*	*	*	*
2E\	.	1c	-drus	.	.	2e\	.	.
!LO:PB:g=original	!	!	!	!	!	!	!	!
2F\	.	.	.	2A/	-drus	2c/	-drus	.
=54-	=54-	=54-	=54-	=54-	=54-	=54-	=54-	=54-
1D	-drus	1d	al-	1A	al-	1f	al-	.
1G	al-	1B-	-ta	0G	-ta	2d/	-ta	.
.	.	.	.	.	.	1g\	li-	.
=55-	=55-	=55-	=55-	=55-	=55-	=55-	=55-	=55-
1C	-ta	1c	li-	.	.	.	.	.
.	.	.	.	.	.	4f\	.	.
.	.	.	.	.	.	4e\	.	.
*	*	*lig	*	*	*	*	*	*
1G	li-	1B-	-ba-	0r	.	2d/	.	.
.	.	.	.	.	.	2.e\	.	.
=56-	=56-	=56-	=56-	=56-	=56-	=56-	=56-	=56-
2F\	.	1A	.	.	.	.	.	.
*	*	*	*	*	*	*custos:d	*	*
.	.	.	.	.	.	4d\	.	.
!	!	!	!	!	!	!LO:LB:g=original	!	!
2D/	.	.	.	.	.	1d	.	.
*	*	*Xlig	*	*	*	*	*	*
1E	.	1G	.	2r	.	.	.	.
!	!	!	!	!	!	!LO:SIC:v:s=2c#/:t=?	!	!
.	.	.	.	1G/	li-	2c/	-ba-	.
=57-	=57-	=57-	=57-	=57-	=57-	=57-	=57-	=57-
1D	-ba-	1A	-ni	.	.	2d\	-ni	.
.	.	.	.	2F/	   ba-	1f	con-	.
1C	-ni	1c	con-	2G/	-ni	.	.	.
.	.	.	.	2G/	con-	2e\	.	.
=58-	=58-	=58-	=58-	=58-	=58-	=58-	=58-	=58-
*	*	*lig	*	*	*	*	*	*
2D/	con-	1A	-for-	2F/	-for-	2d\	-for-	.
2AA/	.	.	.	2E/	-ma-	2.e\	-ma-	.
*	*	*	*	*custos:D	*	*	*	*
2C/	-for-	1G	.	2C/	-t(ur)	.	.	.
.	.	.	.	.	.	4d\	.	.
!	!	!	!	!LO:LB:g=original	!	!	!	!
2BB-/	.	.	.	2D/	i-	1d\	.	.
*	*	*Xlig	*	*	*	*	*	*
=59-	=59-	=59-	=59-	=59-	=59-	=59-	=59-	=59-
*	*	*custos:B-	*	*	*	*	*	*
1AA	-ma-	1A	.	1E	-ſo-	.	.	.
!	!	!	!	!	!	!LO:SIC:v:s=2c#/:t=?	!	!
.	.	.	.	.	.	2c/	-tur	.
!	!	!LO:LB:g=original	!	!	!	!	!	!
1GG	-tur,	1B-	-ma-	2G/	-po	2d/	.	.
.	.	.	.	2G/	con-	2.g\	hii-	.
=60-	=60-	=60-	=60-	=60-	=60-	=60-	=60-	=60-
*	*	*lig	*	*	*	*	*	*
2r	.	1A	-tur	1c	-for-	.	.	.
.	.	.	.	.	.	4f\	.	.
*custos:BB-	*	*	*	*	*	*	*	*
2AA/	hii-	.	.	.	.	1f	.	.
!LO:LB:g=original	!	!	!	!	!	!	!	!
2BB-/	.	1G	.	2d\	-ma-	.	.	.
2C/	.	.	.	1c\	.	2e\	.	.
*	*	*Xlig	*	*	*	*	*	*
=61-	=61-	=61-	=61-	=61-	=61-	=61-	=61-	=61-
*lig	*	*lig	*	*	*	*	*	*
1D	-ſo-	1F	hii-	.	.	2d\	.	.
*	*	*	*	*	*	*custos:e	*	*
.	.	.	.	2B-\	-tur	1f	-ſo-	.
1C	.	1G	.	2c\	.	.	.	.
!	!	!	!	!	!	!LO:PB:g=original	!	!
.	.	.	.	1c\	i-	2e\	.	.
*Xlig	*	*Xlig	*	*	*	*	*	*
=62-	=62-	=62-	=62-	=62-	=62-	=62-	=62-	=62-
*	*	*lig	*	*	*	*	*	*
2FF/	-po,	1A	.	.	.	1f	-po	.
1F	hii-	.	.	4B-\	.	.	.	.
.	.	.	.	4A\	.	.	.	.
.	.	1B-	.	1G	-ſo-	1r	.	.
2E\	-ſo-	.	.	.	.	.	.	.
*	*	*Xlig	*	*	*	*	*	*
=63-	=63-	=63-	=63-	=63-	=63-	=63-	=63-	=63-
2F\	-po	1A	-ſo-	2A/	-po	2r	.	.
1D	ual-	.	.	2F/	ual-	1f	ual-	.
.	.	1A	-po	2D/	-le	.	.	.
*	*	*	*	*custos:F	*	*	*	*
2C/	-le	.	.	2E/	.	2e\	-le	.
=64-	=64-	=64-	=64-	=64-	=64-	=64-	=64-	=64-
!	!	!	!	!LO:PB:g=original	!	!	!	!
1BB-	noſ-	1B-	val-	0F	noſ-	1d	n(ost)-	.
*	*	*lig	*	*	*	*	*	*
2FF/	-tra,	1A	-le	.	.	0c	-ra	.
1F\	val-	.	.	.	.	.	.	.
=65-	=65-	=65-	=65-	=65-	=65-	=65-	=65-	=65-
.	.	1G	.	2C/	-tra	.	.	.
2E\	.	.	.	1c	.	.	.	.
*	*	*Xlig	*	*	*	*	*	*
*	*	*lig	*	*	*	*	*ij	*
1D	-le	1F	.	.	.	2r	.	.
.	.	.	.	2B-/	val-	2F/	ual-	.
=66-	=66-	=66-	=66-	=66-	=66-	=66-	=66-	=66-
1C	no-	1E	.	2A/	-le	2.c/	.	.
.	.	.	.	4G/	no-	.	.	.
.	.	.	.	4F/	.	4d\	-le	.
*	*	*Xlig	*	*	*	*	*	*
1C	.	1G	noſ-	2G/	.	4e\	n(ost)-	.
.	.	.	.	.	.	2f\	.	.
.	.	.	.	2c\	.	.	.	.
.	.	.	.	.	.	4e\	.	.
=67-	=67-	=67-	=67-	=67-	=67-	=67-	=67-	=67-
*custos:C	*	*	*	*	*	*custos:g	*	*
0FF;l	-ſtra,	0F\;l	-tra	0A;>l	-ſtra,	0f;<l	-ra	.
*	*	*	*	*	*	*	*Xij	*
=68-	=68-	=68-	=68-	=68-	=68-	=68-	=68-	=68-
!LO:LB:g=original	!	!	!	!	!	!LO:LB:g=original	!	!
1C	E-	1c	E-	1c	E-	1g	E-	.
1F	-ſa-	1c	-ſa-	1A	-ſa-	1f	-ſa-	.
=69-	=69-	=69-	=69-	=69-	=69-	=69-	=69-	=69-
*	*	*custos:f	*	*	*	*	*	*
1D	-i-	1d	-i-	2A/	-i-	1f	-i-	.
.	.	.	.	1B-	-as	.	.	.
*	*	*clefC3	*	*	*	*	*	*
!	!	!LO:LB:g=original	!	!	!	!	!	!
2BB-/	-as	1f	-as	.	.	2.d\	-as	.
2.D/	ce-	.	.	4A/	.	.	.	.
*	*	*	*	*custos:F	*	*	*	*
.	.	.	.	4G/	.	4e\	.	.
=70-	=70-	=70-	=70-	=70-	=70-	=70-	=70-	=70-
!	!	!	!	!LO:LB:g=original	!	!	!	!
.	.	1d	ce-	1F	.	2f\	.	.
4C/	.	.	.	.	.	.	.	.
4BB-/	.	.	.	.	.	1d	ce-	.
4AA/	.	.	.	.	.	.	.	.
2BB-/	.	1B-	-ci-	2F/	ce-	.	.	.
2GG/	-ci-	.	.	2G/	-ci-	2e\	-ci-	.
=71-	=71-	=71-	=71-	=71-	=71-	=71-	=71-	=71-
2FF/	-nit	1c	-nit	2A/	-nit	1f	-nit	.
2F\	ſi-	.	.	2A/	ſi-	.	.	.
2D/	-na-	1f	ſi-	2d\	-na-	1r	.	.
2F\	-go-	.	.	2c\	-go-	.	.	.
=72-	=72-	=72-	=72-	=72-	=72-	=72-	=72-	=72-
2BB-/	-ga	1d	-na-	2B-\	-ga	2r	.	.
2.BB-/	ſi-	.	.	1B-	.	2f\	ſii-	.
.	.	1f	-go-	.	.	2d\	-na-	.
4C/	.	.	.	.	.	.	.	.
4D/	.	.	.	4A/	.	1f\	-go-	.
*custos:FF	*	*	*	*	*	*	*	*
4E\	.	.	.	4G/	.	.	.	.
=73-	=73-	=73-	=73-	=73-	=73-	=73-	=73-	=73-
!LO:LB:g=original	!	!	!	!	!	!	!	!
1F	-nago-	1c	-ga	1A	.	.	.	.
.	.	.	.	.	.	2c/	-ga	.
1FF	-ga	1c	me-	2.A/	me-	2.f\	.	.
.	.	.	.	4G/	.	4e\	me-	.
=74-	=74-	=74-	=74-	=74-	=74-	=74-	=74-	=74-
*	*	*lig	*	*	*	*	*	*
2.BB-/	me-	1B-	-mi-	4F/	.	4d\	.	.
.	.	.	.	4E/	.	4c\	.	.
.	.	.	.	1F	.	4d\	.	.
*	*	*	*	*	*	*custos:f	*	*
4C/	.	.	.	.	.	4e\	.	.
!	!	!	!	!	!	!LO:LB:g=original	!	!
2D/	.	1A	.	.	.	2f\	.	.
2C/	.	.	.	2E/	.	2c/	.	.
*	*	*Xlig	*	*	*	*	*	*
=75-	=75-	=75-	=75-	=75-	=75-	=75-	=75-	=75-
*	*	*	*	*custos:E	*	*	*	*
1BB-	-mi-	1G	.	1D	.	1d	-mi-	.
!	!	!	!	!LO:LB:g=original	!	!	!	!
2AA/	-nit,	1A	-nit,	2E/	.	2c/	-nit	.
2D/	me-	.	.	2F/	.	1f\	nu(n)-	.
=76-	=76-	=76-	=76-	=76-	=76-	=76-	=76-	=76-
1C	-mi-	1c	nun-	1G	-mi-	.	.	.
.	.	.	.	.	.	2e\	-q(uam)	.
*	*	*lig	*	*	*	*	*	*
2D/	-(n)it	1A	-q(uam)	1F	-nit,	2d\	ta-	.
1F\	nu(n)-	.	.	.	.	2c/	.	.
=77-	=77-	=77-	=77-	=77-	=77-	=77-	=77-	=77-
.	.	1G	.	2r	.	2d\	-me(n)	.
2E\	-q(uam)	.	.	2c\	nu(n)-	2e\	de-	.
*	*	*Xlig	*	*	*	*	*	*
2D/	ta-	1A	.	4.A\	-q(uam)	2f\	.	.
.	.	.	.	8B-\	.	.	.	.
2C/	-me(n)	.	.	2c\	ta-	2e\	.	.
=78-	=78-	=78-	=78-	=78-	=78-	=78-	=78-	=78-
*	*	*custos:A	*	*	*	*	*	*
2BB-/	de-	1B-	ta-	0F	-me(n)	1d	-ſi-	.
*custos:FF	*	*	*	*	*	*	*	*
2BB-/	-ſi-	.	.	.	.	.	.	.
*	*	*clefC4	*	*	*	*	*	*
*	*	*lig	*	*	*	*	*	*
!LO:PB:g=original	!	!LO:PB:g=original	!	!	!	!	!	!
1FF	-nit,	1A	-me(n)	.	.	2c/	-nit	.
.	.	.	.	.	.	1f\	.	.
=79-	=79-	=79-	=79-	=79-	=79-	=79-	=79-	=79-
1r	.	1G	.	1C	.	.	.	.
.	.	.	.	.	.	2e\	nu(n)-	.
*	*	*Xlig	*	*	*	*	*	*
*	*	*lig	*	*	*	*	*	*
2r	.	1F	de-	8D/L	de-	2d/	-q(uam)	.
.	.	.	.	8E/	.	.	.	.
.	.	.	.	8F/	.	.	.	.
.	.	.	.	8G/J	.	.	.	.
*	*ij	*	*	*	*	*	*	*
1F\	de-	.	.	2A/	.	2c/	ta-	.
=80-	=80-	=80-	=80-	=80-	=80-	=80-	=80-	=80-
.	.	1G	.	1G	.	2B-/	-me(n)	.
*	*	*	*	*	*	*custos:d	*	*
2E/	.	.	.	.	.	2c/	de-	.
*	*	*Xlig	*	*	*	*	*	*
*	*	*lig	*	*	*	*	*	*
!	!	!	!	!	!	!LO:LB:g=original	!	!
2D/	.	1A	.	2F/	.	2d\	.	.
2C/	.	.	.	2E/	.	2.e\	.	.
=81-	=81-	=81-	=81-	=81-	=81-	=81-	=81-	=81-
*	*	*	*	*custos:G	*	*	*	*
2BB-/	.	1B-	.	2F/	.	.	.	.
!	!	!	!	!	!	!LO:N:vis=2	!	!
.	.	.	.	.	.	4d\	.	.
!	!	!	!	!LO:LB:g=original	!	!	!	!
2GG/	-ſi-	.	.	2G/	.	1d	-ſi-	.
*	*	*Xlig	*	*	*	*	*	*
1AA	-nit	1A	-ſi-	1E	-ſi-	.	.	.
*	*Xij	*	*	*	*	*	*	*
!	!	!	!	!	!	!LO:SIC:v:s=2c#/:t=?	!	!
.	.	.	.	.	.	2c/	-nit	.
=82-	=82-	=82-	=82-	=82-	=82-	=82-	=82-	=82-
2D/	eſ-	1A	-nit	2D/	-nit	1d	.	.
2D/	-se	.	.	2F/	eſ-	.	.	.
2BB-/	ce-	1B-	eſ-	2F/	-ſe	1d	eſ-	.
2GG/	.	.	.	2.G/	ce-	.	.	.
=83-	=83-	=83-	=83-	=83-	=83-	=83-	=83-	=83-
*	*	*lig	*	*	*	*	*	*
2AA/	.	1A	-ſe	.	.	0c	-ſe	.
.	.	.	.	4F/	.	.	.	.
2FF/	.	.	.	1F	.	.	.	.
1C	.	1G	.	.	.	.	.	.
.	.	.	.	2E/	-ca	.	.	.
*	*	*Xlig	*	*	*	*	*	*
=84-	=84-	=84-	=84-	=84-	=84-	=84-	=84-	=84-
*	*	*lig	*	*	*ij	*	*	*
4FF/	.	1F	.	1A	eſ-	2.c/	ce-	.
4GG/	.	.	.	.	.	.	.	.
4AA/	.	.	.	.	.	.	.	.
*custos:C	*	*	*	*	*	*	*	*
4BB-/	.	.	.	.	.	4d\	.	.
!LO:LB:g=original	!	!	!	!	!	!	!	!
2C/	.	1E	.	2G/	-ſe	2e\	.	.
2AA/	.	.	.	2c\	ce-	2c\	.	.
*	*	*Xlig	*	*	*	*	*	*
=85-	=85-	=85-	=85-	=85-	=85-	=85-	=85-	=85-
2BB-/	.	1G	ce-	2B-\	.	2d\	.	.
2C/	.	.	.	2G/	.	2e\	.	.
*	*	*	*	*custos:G	*	*	*	*
1FF;l	-ca,	1F;l	-ca	1A;l	-ca	1c;;l	-ca,	.
=86-	=86-	=86-	=86-	=86-	=86-	=86-	=86-	=86-
*M6/2	*	*M6/2	*	*M6/2	*Xij	*M6/2	*	*
*met(C.)	*	*met(C.)	*	*met(C.)	*	*met(C.)	*	*
!	!	!LO:TX:t=P:problem=brak oznaczenia metrycznego, żeby się zgadzało trzeba zrobić trójdzielne semibreves	!LO:PB:g=original	!	!	!	!	!
!LO:N:vis=1	!	!LO:N:vis=1	!	!	!	!	!	!
1.r	.	1.C	In	1G	In	1c	In	.
*	*	*	*	*	*	*custos:A	*	*
.	.	.	.	2G/	fe-	2c/	fe-	.
*	*	*custos:G	*	*	*	*	*	*
!	!	!	!	!	!	!LO:PB:g=original	!	!
!	!	!LO:N:vis=1	!	!	!	!	!	!
1FF	In	1.F	fe-	2.A/	-lix	2A/	-lix	.
.	.	.	.	.	.	2c/	pro-	.
.	.	.	.	4G/	.	.	.	.
2FF/	fe-	.	.	4A/	.	2d/	-pe-	.
.	.	.	.	4B-/	.	.	.	.
=87-	=87-	=87-	=87-	=87-	=87-	=87-	=87-	=87-
*	*	*lig	*	*	*	*	*	*
!	!	!LO:LB:g=original	!	!	!	!	!	!
!	!	!LO:N:vis=1	!	!	!	!	!	!
2C/	-lix	1.G	-lix	2c\	.	2c/	-ra	.
*	*	*	*	*	*	*	*ij	*
2BB-/	pro-	.	.	2G/	pro-	2d\	in	.
2C/	.	.	.	2c\	-pe-	2e\	.	.
!	!	!LO:N:vis=1	!	!	!	!	!	!
2.D/	-pe-	1.F	.	1A	-ra	2.f\	fe-	.
*	*	*Xlig	*	*	*	*	*	*
4C/	.	.	.	.	.	4e\	.	.
4BB-/	.	.	.	2r	.	4d/	.	.
*custos:G	*	*	*	*	*	*	*	*
4AA/	.	.	.	.	.	4c/	.	.
=88-	=88-	=88-	=88-	=88-	=88-	=88-	=88-	=88-
!LO:LB:g=original	!	!LO:N:vis=1	!	!	!	!	!	!
2.GG/	.	1.G	.	2.d\	pro-	2.B-/	-lix	.
4AA/	.	.	.	4c\	.	4c/	.	.
2BB-/	.	.	.	4B-/	.	2d/	.	.
.	.	.	.	4A/	.	.	.	.
!	!	!LO:N:vis=1	!	!	!	!	!	!
2.C/	.	1.E	pro-	1G	.	2.c/	pro-	.
4BB-/	.	.	.	.	.	4d/	.	.
*	*	*	*	*custos:B-	*	*	*	*
2AA/	.	.	.	2A/	.	4e\	.	.
.	.	.	.	.	.	4c/	.	.
=89-	=89-	=89-	=89-	=89-	=89-	=89-	=89-	=89-
!	!	!LO:N:vis=1	!	!LO:LB:g=original	!	!	!	!
2GG/	.	1.G	-pe-	1B-	.	1d	-pe-	.
2BB-/	.	.	.	.	.	.	.	.
*	*	*	*	*	*	*custos:f	*	*
2C/	.	.	.	2G/	-pe-	2e\	.	.
!LO:N:vis=1	!	!LO:N:vis=1	!	!LO:N:vis=1	!	!LO:LB:g=original	!	!
1.FF	-ra	1.F	-ra	1.A	-ra	1f	-ra	.
*	*	*	*	*	*	*	*Xij	*
.	.	.	.	.	.	2c/	.	.
=90-	=90-	=90-	=90-	=90-	=90-	=90-	=90-	=90-
!	!	!LO:TX:t=P:problem=drugi tekst, nieczytelny (tollite portas?)	!	!	!	!	!	!
!LO:N:vis=1	!	!LO:N:vis=1	!	!	!	!	!	!
1.r	.	1.C	cre-	1G	cre-	1c	cre-	.
.	.	.	.	2G/	-de	2c/	-de	.
!	!	!LO:N:vis=1	!	!	!	!	!	!
1FF	Cre-	1.F	-de	2.A/	.	2A/	uel	.
.	.	.	.	.	.	2c/	.	.
.	.	.	.	4G/	uel	.	.	.
2FF/	-de	.	.	4A/	.	2d/	ue-	.
.	.	.	.	4B-\	.	.	.	.
=91-	=91-	=91-	=91-	=91-	=91-	=91-	=91-	=91-
*	*	*lig	*	*	*	*	*	*
!	!	!LO:N:vis=1	!	!	!	!	!	!
2C/	.	1.G	uel	2c\	.	2c/	-re-	.
2BB-/	uel	.	.	2G/	ue-	2d\	-ra	.
2C/	.	.	.	2c\	-te-	2e\	.	.
!	!	!LO:N:vis=1	!	!	!	!	!	!
2.D/	ue-	1.F	.	1A	-ra	2.f\	.	.
4C/	.	.	.	.	.	4e\	.	.
4BB-/	.	.	.	2r	.	4d\	.	.
*custos:GG	*	*	*	*	*	*	*	*
4AA/	.	.	.	.	.	4c\	.	.
*	*	*Xlig	*	*	*	*	*	*
=92-	=92-	=92-	=92-	=92-	=92-	=92-	=92-	=92-
!LO:LB:g=original	!	!LO:N:vis=1	!	!	!	!	!	!
2.GG/	.	1.G	.	2.d\	vel	2.B-/	.	.
4AA/	.	.	.	4c\	.	4c/	.	.
2BB-/	.	.	.	4B-/	.	2d/	.	.
.	.	.	.	4A/	.	.	.	.
!	!	!LO:N:vis=1	!	!	!	!	!	!
2.C/	-te-	1.E	ue-	1G	.	2.c/	.	.
4BB-/	.	.	.	.	.	4d\	.	.
*	*	*	*	*custos:B-	*	*	*	*
2AA/	.	.	.	2A/	.	4e\	.	.
*	*	*	*	*	*	*custos:d	*	*
.	.	.	.	.	.	4c\	.	.
=93-	=93-	=93-	=93-	=93-	=93-	=93-	=93-	=93-
!	!	!LO:N:vis=1	!	!LO:LB:g=original	!	!LO:LB:g=original	!	!
2GG/	.	1.G	-te-	1B-	.	1d	.	.
2BB-/	.	.	.	.	.	.	.	.
2C/	.	.	.	2G/	te-	2e\	.	.
=94-	=94-	=94-	=94-	=94-	=94-	=94-	=94-	=94-
*M2/1	*	*M2/1	*	*M2/1	*	*M2/1	*	*
*met(C)	*	*	*	*met(C)	*	*met(C)	*	*
2FF/	-ra	1F	-ra	2c\	-ra	2f\	.	.
2F\	cur	.	.	2A/	cur	2c/	cur	.
1F	.	1A	cur	2c\	dam-	1f	dam-	.
.	.	.	.	2A/	-(n)a-	.	.	.
=95-	=95-	=95-	=95-	=95-	=95-	=95-	=95-	=95-
4C/	dam-	1c	da(m)-	1G	-be-	1e	-na-	.
4D/	.	.	.	.	.	.	.	.
4E\	-na-	.	.	.	.	.	.	.
*custos:G	*	*	*	*	*	*	*	*
4F\	.	.	.	.	.	.	.	.
*	*	*custos:A	*	*	*	*	*	*
!LO:PB:g=original	!	!	!	!	!	!	!	!
2.G\	.	1B-	-na-	1G	-ris	2d/	-be-	.
.	.	.	.	.	.	2.e\	-r(is)	.
4F\	.	.	.	.	.	.	.	.
=96-	=96-	=96-	=96-	=96-	=96-	=96-	=96-	=96-
*	*	*lig	*	*	*	*	*	*
!	!	!LO:LB:g=original	!	!	!	!	!	!
4D/	.	1A	-be-	2r	.	.	.	.
4E/	.	.	.	.	.	4d\	.	.
2F\	.	.	.	2F/	gens	1d	.	.
1E	-be-	1G	.	2.G/	mi-	.	.	.
!	!	!	!	!	!	!LO:SIC:v:s=2c#/:t=?	!	!
.	.	.	.	.	.	2c/	.	.
.	.	.	.	4A/	.	.	.	.
*	*	*Xlig	*	*	*	*	*	*
=97-	=97-	=97-	=97-	=97-	=97-	=97-	=97-	=97-
2D/	-ris	1F	-ris	4B-\	.	2d\	.	.
.	.	.	.	4c\	.	.	.	.
1BB-	gens	.	.	2.d\	.	1f	gens	.
*	*	*lig	*	*	*	*	*	*
.	.	1G	gens	.	.	.	.	.
.	.	.	.	4c\	.	.	.	.
*	*	*	*	*	*	*custos:d	*	*
2C/	.	.	.	1c\	.	2e\	.	.
=98-	=98-	=98-	=98-	=98-	=98-	=98-	=98-	=98-
!	!	!	!	!	!	!LO:LB:g=original	!	!
1D	.	1F	.	.	.	4d\	mi-	.
.	.	.	.	.	.	4e\	.	.
*	*	*	*	*custos:c	*	*	*	*
.	.	.	.	2B-\	.	4f\	.	.
.	.	.	.	.	.	4d\	.	.
*	*	*Xlig	*	*	*	*	*	*
!	!	!	!	!LO:LB:g=original	!	!	!	!
1C	.	1G	.	2.c\	.	4e\	.	.
.	.	.	.	.	.	4f\	.	.
.	.	.	.	.	.	2.g\	.	.
.	.	.	.	8B-/L	.	.	.	.
.	.	.	.	8A/J	.	.	.	.
=99-	=99-	=99-	=99-	=99-	=99-	=99-	=99-	=99-
1.C	mi-	1E	mi-	1G	.	.	.	.
.	.	.	.	.	.	4f\	.	.
.	.	.	.	.	.	4e\	.	.
.	.	.	.	.	.	4d\	.	.
.	.	1G	-ſe-	2.c\	.	4e\	.	.
.	.	.	.	.	.	2f\	.	.
2C/	-ſe-	.	.	.	.	.	.	.
.	.	.	.	4c\	-e-	4e\	-ſe-	pe-
=100-	=100-	=100-	=100-	=100-	=100-	=100-	=100-	=100-
!	!	!	!	!LO:TX:t=P:problem=znaczenie liczb niejasne	!	!	!	!
!	!	!	!	!LO:TX:b:t=13	!	!	!	!
!LO:TX:t=P:problem=signum congruentiae, znaczenie niejasne (oznaczenie wcześniejszego zakończenia?)	!	!LO:TX:t=P:problem=signum congruentiae, znaczenie niejasne (oznaczenie wcześniejszego zakończenia?)	!	!LO:TX:t=P:problem=signum congruentiae, znaczenie niejasne (oznaczenie wcześniejszego zakończenia?)	!	!	!	!
1FF	-ra	1F	-ra	1A	-ra	2f\	-ra	-ra
!	!	!	!	!	!	!LO:TX:t=P:problem=kreska pseudotaktowa	!	!
.	.	.	.	.	.	2.c/	Ma-	.
*custos:GG	*	*	*	*	*	*	*	*
!	!	!	!	!LO:TX:a:t=3	!	!	!	!
1C	Ma-	1E	Ma-	1G	Ma-	.	.	.
.	.	.	.	.	.	4d/	.	.
.	.	.	.	.	.	4e/	.	.
*	*	*	*	*	*	*custos:d	*	*
.	.	.	.	.	.	4c/	.	.
=101-	=101-	=101-	=101-	=101-	=101-	=101-	=101-	=101-
*	*	*lig	*	*	*	*	*	*
!LO:LB:g=original	!	!	!	!	!	!LO:PB:g=original	!	!
4GG/	-ri-	1G	-ri-	1B-	-ri-	1.d	-ri-	.
4AA/	.	.	.	.	.	.	.	.
4BB-/	.	.	.	.	.	.	.	.
4C/	.	.	.	.	.	.	.	.
4D/	.	1F	.	1A	-a	.	.	.
4E\	.	.	.	.	.	.	.	.
1F\	.	.	.	.	.	4c/	.	.
.	.	.	.	.	.	4B-/	.	.
*	*	*Xlig	*	*	*	*	*	*
=102-	=102-	=102-	=102-	=102-	=102-	=102-	=102-	=102-
*	*	*lig	*	*	*ij	*	*	*
.	.	1G	.	2r	.	4c/	.	.
.	.	.	.	.	.	4d/	.	.
2E\	.	.	.	2G/	Ma-	2e\	.	.
2D/	.	1A	.	4F/	.	2f\	.	.
.	.	.	.	4D/	.	.	.	.
2C/	.	.	.	2E/	.	2e\	.	.
*	*	*Xlig	*	*	*	*	*	*
=103-	=103-	=103-	=103-	=103-	=103-	=103-	=103-	=103-
*	*	*lig	*	*	*	*	*	*
2BB-/	.	1B-	.	2F/	.	1d	.	.
2GG/	.	.	.	2.G/	.	.	.	.
2AA/	.	1A	.	.	.	0c	-a	.
*	*	*	*	*custos:F	*	*	*	*
.	.	.	.	4F/	.	.	.	.
!	!	!	!	!LO:PB:g=original	!	!	!	!
2FF/	.	.	.	1F/	.	.	.	.
*	*	*Xlig	*	*	*	*	*	*
=104-	=104-	=104-	=104-	=104-	=104-	=104-	=104-	=104-
*	*	*lig	*	*	*	*	*	*
1C	.	1G	.	.	.	.	.	.
.	.	.	.	2E/	.	.	.	.
4FF/	.	1F	.	1A	-ri-	2.c/	Ma-	.
4GG/	.	.	.	.	.	.	.	.
4AA/	.	.	.	.	.	.	.	.
*custos:C	*	*	*	*	*	*	*	*
4BB-/	.	.	.	.	.	4d/	.	.
*	*	*Xlig	*	*	*	*	*	*
=105-	=105-	=105-	=105-	=105-	=105-	=105-	=105-	=105-
!LO:LB:g=original	!	!	!	!	!	!	!	!
1C	.	1E	.	2.G/	.	4e\	.	.
.	.	.	.	.	.	4f\	.	.
.	.	.	.	.	.	2.g\	.	.
.	.	.	.	4A/	.	.	.	.
*	*	*lig	*	*	*	*	*	*
1BB-	.	0G	-a	4B-\	.	.	.	.
.	.	.	.	4c\	.	4f\	.	.
.	.	.	.	2d\	.	1f\	.	.
=106-	=106-	=106-	=106-	=106-	=106-	=106-	=106-	=106-
1C	.	.	.	1c	-a	.	.	.
*	*	*	*	*	*Xij	*	*	*
*	*	*	*	*	*	*custos:f	*	*
.	.	.	.	.	.	2e\	-ri-	.
!	!	!	!	!	!	!LO:LB:g=original	!	!
1FF	-a	[y00\F;l	.	2r	.	0f	-a	.
.	.	.	.	2c\	Ma-	.	.	.
*	*	*Xlig	*	*	*	*	*	*
=107-	=107-	=107-	=107-	=107-	=107-	=107-	=107-	=107-
2r	.	.	.	2.c\	-ri-	.	.	.
2F\	Ma-	.	.	.	.	.	.	.
.	.	.	.	4B-\	.	.	.	.
2.F\	-ri-	.	.	2.A/	.	2r	.	.
.	.	.	.	.	.	2f\	Ma-	.
4E\	.	.	.	4G/	.	.	.	.
=108-	=108-	=108-	=108-	=108-	=108-	=108-	=108-	=108-
2.D/	.	.	.	2F/	-a	2.f\	-ri-	.
*	*	*	*	*custos:a	*	*	*	*
.	.	.	.	2f\	Ma-	.	.	.
4C/	.	.	.	.	.	4e\	.	.
*	*	*	*	*clefC3	*	*	*	*
1.BB-	.	1F_yy	.	2.f\	-ri-	2.d/	.	.
.	.	.	.	4e\	.	4c/	.	.
=109-	=109-	=109-	=109-	=109-	=109-	=109-	=109-	=109-
.	.	00F]yy	.	2d\	.	2B-/	.	.
2AA/	.	.	.	2c/	.	2c/	.	.
1BB-	.	.	.	1B-	.	1d	.	.
=110-	=110-	=110-	=110-	=110-	=110-	=110-	=110-	=110-
0FF;l	-a	.	.	0A;l	-a:	0c;;l	-a	.
==	==	==	==	==	==	==	==	==
*-	*-	*-	*-	*-	*-	*-	*-	*-
!!!system-decoration: [(s1,s2,s3,s4)]
!!!RDF**kern: > = above
!!!RDF**kern: < = below
!!!RDF**kern: l = terminal long
!!!ENC: Mateusz Solarz
!!!END: 2022-03-07
!!!ENC: Krzysztof Stępień
!!!END: 2022-03-22
!!!YEC: Copyright 2022 Narodowy Instytut Fryderyka Chopina (https://polishscores.org)
!!!YEM: License CC-BY-4.0 (https://creativecommons.org/licenses/by/4.0)
